!!!COM: Anonymous
!!!OTL@@LAT: Catharinae virginis
!!!TXO: Latin
!!!ODT: 
!!!GTL: Hymnbook L 1642
!!!ARL: Biblioteka Diecezjalna w Sandomierzu 
!!!voices:	4
**kern	**text	**kern	**text	**kern	**text	**kern	**text
*staff4	*staff4	*staff3	*staff3	*staff2	*staff2	*staff1	*staff1
*I"Basso	*	*I"Canto III	*	*I"Canto II	*	*I"Canto I	*
=1-	=1-	=1-	=1-	=1-	=1-	=1-	=1-
*clefF4	*	*clefC1	*	*clefC1	*	*clefG2	*
*k[]	*	*k[]	*	*k[]	*	*k[]	*
*met(c|)	*	*met(c|)	*	*met(c|)	*	*met(c|)	*
*M2/2	*	*M2/2	*	*M2/2	*	*M2/2	*
1C	Ca-	1cc	Ca-	1g	Ca-	1cc	Ca-
=2	=2	=2	=2	=2	=2	=2	=2
2AA/	-tha-	2cc\	-tha-	2a\	-tha-	2cc\	-tha-
2GG/	-ri-	2g\	-ri-	2b\	-ri-	2dd\	-ri-
=3	=3	=3	=3	=3	=3	=3	=3
[1C	-nae	[1g	-nae	[1cc	-nae	[1ee	-nae
=4	=4	=4	=4	=4	=4	=4	=4
2C/]	.	2g\]	.	2cc\]	.	2ee\]	.
2F\	vir-	2a\	vir-	2a\	vir-	2ff\	vir-
=5	=5	=5	=5	=5	=5	=5	=5
1G	-gi-	1b	-gi-	1dd	-gi-	1dd	-gi-
=6	=6	=6	=6	=6	=6	=6	=6
1C	-nis	1cc	-nis	1ee	-nis	1cc	-nis
=7	=7	=7	=7	=7	=7	=7	=7
1C	lau-	1ee	lau-	2.cc\	lau-	1gg	lau-
.	.	.	.	4dd\	.	.	.
=8	=8	=8	=8	=8	=8	=8	=8
2C/	-des	2cc\	-des	2ee\	-des	2ee\	-des
[2F\	de-	[2a\	de-	[2cc\	de-	[2ff\	de-
=9	=9	=9	=9	=9	=9	=9	=9
2F\]	.	2a\]	.	2cc\]	.	2ff\]	.
2C/	-can-	[2cc\	-can-	2ee\	-can-	2ee\	-can-
=10	=10	=10	=10	=10	=10	=10	=10
1G	-te-	2cc\]	.	1gg	-te-	1dd	-te-
.	.	2b\	-te-	.	.	.	.
=11	=11	=11	=11	=11	=11	=11	=11
1C	-mus	1cc	-mus	1ee	-mus	1cc	-mus
=12	=12	=12	=12	=12	=12	=12	=12
[1C	Et	[1cc	Et	[1ee	Et	[1ee	Et
=13	=13	=13	=13	=13	=13	=13	=13
2C/]	.	2cc\]	.	2ee\]	.	2ee\]	.
2C/	fi-	2cc\	fi-	2cc\	fi-	2ee\	fi-
=14	=14	=14	=14	=14	=14	=14	=14
1G	-de-	2.b\	-de-	1dd	-de-	1dd	-de-
.	.	4a\	.	.	.	.	.
=15	=15	=15	=15	=15	=15	=15	=15
2C/	-i	2g\	-i	2ee\	-i	2cc\	-i
2G\	pu-	[2g\	pu-	2dd\	pu-	2b\	pu-
=16	=16	=16	=16	=16	=16	=16	=16
1D	-gi-	2g\]	.	1dd	-gi-	1a	-gi-
.	.	2f#i/	-gi-	.	.	.	.
=17	=17	=17	=17	=17	=17	=17	=17
2E\	-lem	2g\	-lem	2b\	-lem	2g/	-lem
[2C/	pre-	[2gg\	pre-	[2cc\	pre-	[2cc\	pre-
=18	=18	=18	=18	=18	=18	=18	=18
2C/]	.	2gg\]	.	2cc\]	.	4cc\]	.
.	.	.	.	.	.	4dd\	.
2C/	-ce	2ee\	-ce	2cc\	-ce	4ee\	.
.	.	.	.	.	.	4ff\	.
=19	=19	=19	=19	=19	=19	=19	=19
2.c\	in-	2.ee\	in-	2.cc\	in-	1gg	.
4B\	.	4dd\	.	4dd\	.	.	.
=20	=20	=20	=20	=20	=20	=20	=20
2A\	-vo-	2cc\	-vo-	2ee\	-vo-	2cc\	-ce
2D\	.	[2dd\	.	[2a\	.	[2ff\	in-
=21	=21	=21	=21	=21	=21	=21	=21
2E\	.	4dd\]	.	4a\]	.	2ff\]	.
.	.	4cc\	.	4b\	.	.	.
2F\	.	[2cc\	.	2cc\	.	2ee\	-vo-
=22	=22	=22	=22	=22	=22	=22	=22
1G	-ce-	2cc\]	.	1dd	-ce-	1dd	-ce-
.	.	2b\	-ce-	.	.	.	.
=23	=23	=23	=23	=23	=23	=23	=23
*M3/2	*	*M3/2	*	*M3/2	*	*M3/2	*
1C	-mus	1cc	-mus	1ee	-mus	1cc	-mus
2C/	fe-	2cc\	fe-	2ee\	fe-	2cc\	fe-
=24	=24	=24	=24	=24	=24	=24	=24
1G	-lix	1b	-lix	1dd	-lix	1b	-lix
2C/	di-	2cc\	di-	2ee\	di-	2cc\	di-
=25	=25	=25	=25	=25	=25	=25	=25
1G	-es	1cc	-es	1dd	-es	1dd	-es
2G\	i-	2b\	i-	2dd\	i-	2dd\	i-
=26	=26	=26	=26	=26	=26	=26	=26
1.C	-sta.	1.cc	-sta.	1.g	-sta.	1.cc	-sta.
==	==	==	==	==	==	==	==
*-	*-	*-	*-	*-	*-	*-	*-
!!!GTL: Hymnbook L 1642
!!!EFL: 37/39
!!!YEM: Creative Commons CC/BY/NC/SA 4.0
!!!ENC: Marcin Konik
!!!END: 2015-02-24 
!!!EED: Marcin Konik
!!!EEV: 
!!!ONB: Translated from MusicXML and edited by Marcin Konik
!!!CharacterEncoding: utf-8
!!!RDF**kern: i=editorial accidental
!!muse2ps: z14jc180F
!!title: @{OTL}, @{GTL}: @{pag}, ed. @{ENC}
